symbolic/48x48/apps/lutris_oxygen-not-included.svg

<svg xmlns="http://www.w3.org/2000/svg" width="48" height="48" version="1">
 <ellipse id="ellipse928" style="opacity:0.2" cx="-40.578" cy="26.528" rx="2.623" ry="3.546" transform="matrix(-0.98343787,-0.18124555,-0.17051155,0.98535568,0,0)"/>
 <ellipse id="ellipse930" style="opacity:0.2" cx="1.782" cy="34.331" rx="2.623" ry="3.52" transform="matrix(0.98368354,-0.17990745,0.17178412,0.98513462,0,0)"/>
 <path style="opacity:0.2" d="M 10.549923,16.990429 C 19.409353,20.080301 23.45511,7.3333611 36,26.002675 35.090314,32.962842 36.182116,32.218699 34.730669,37.553583 33.058468,42.534789 26.904966,45.402595 20.64198,44.954138 15.570695,44.591011 10.734204,43.287571 9.0267258,37.490117 8.2180889,34.812319 7.9385593,31.62128 8.0109946,28.286086 8.0950264,24.417018 9.7951183,20.671282 10.549923,16.990429 Z"/>
 <ellipse id="ellipse839" style="fill:#e59c62" cx="-40.408" cy="25.545" rx="2.623" ry="3.546" transform="matrix(-0.98343787,-0.18124555,-0.17051155,0.98535568,0,0)"/>
 <ellipse style="fill:#e59c62" cx="1.953" cy="33.347" rx="2.623" ry="3.52" transform="matrix(0.98368354,-0.17990745,0.17178412,0.98513462,0,0)"/>
 <path style="fill:#f4ac6f" d="M 10.549923,15.990428 C 16.26816,12.012616 22.654005,4.5308743 36,25.002674 35.090314,31.962841 36.182116,31.218698 34.730669,36.553582 33.058468,41.534788 26.904966,44.402594 20.64198,43.954137 15.570695,43.59101 10.734204,42.28757 9.0267258,36.490116 8.2180889,33.812318 7.9385593,30.621279 8.0109946,27.286085 8.0950264,23.417017 9.7951183,19.671281 10.549923,15.990428 Z"/>
 <g transform="matrix(-1,0,0,1,43.000288,0)">
  <circle style="fill:#3f3f3f" cx="15" cy="29" r="2"/>
  <path style="fill:#3f3f3f" d="m 12.508677,26.039209 c 0.408595,0.627898 1.136592,1.284016 1.95396,1.185189 l -1.121124,0.640643 C 12.654239,27.358846 12.519087,26.71462 12.508677,26.039209 Z"/>
  <path style="fill:#3f3f3f" d="m 11.547712,27.480655 c 0.408596,0.627899 1.8413,0.387116 2.658668,0.28829 l -0.544546,1.409414 C 12.97456,28.672164 11.558122,28.156066 11.547712,27.480655 Z"/>
  <path style="fill:#3f3f3f" d="m 11.675841,28.60178 c 0.408595,0.627899 1.841299,0.387117 2.658668,0.28829 l -0.544546,1.409414 C 13.102689,29.793289 11.686251,29.277192 11.675841,28.60178 Z"/>
 </g>
 <g transform="translate(-0.999712)">
  <circle style="fill:#3f3f3f" cx="15" cy="29" r="2"/>
  <path style="fill:#3f3f3f" d="m 12.508677,26.039209 c 0.408595,0.627898 1.136592,1.284016 1.95396,1.185189 l -1.121124,0.640643 C 12.654239,27.358846 12.519087,26.71462 12.508677,26.039209 Z"/>
  <path style="fill:#3f3f3f" d="m 11.547712,27.480655 c 0.408596,0.627899 1.8413,0.387116 2.658668,0.28829 l -0.544546,1.409414 C 12.97456,28.672164 11.558122,28.156066 11.547712,27.480655 Z"/>
  <path style="fill:#3f3f3f" d="m 11.675841,28.60178 c 0.408595,0.627899 1.841299,0.387117 2.658668,0.28829 l -0.544546,1.409414 C 13.102689,29.793289 11.686251,29.277192 11.675841,28.60178 Z"/>
 </g>
 <path style="opacity:0.2" d="m 28.990504,35.113915 c -0.771125,2.790783 -4.025603,4.886086 -7.923375,4.886086 -4.236094,0 -7.712375,-2.474832 -8.066841,-5.627603 0.01225,-0.125129 0.0621,-0.311137 0.219001,-0.307657 1.072737,0.02379 4.515642,-0.140038 7.764267,-0.02079 3.225351,0.118394 6.735439,-0.245212 7.843226,0.222179 0.239615,0.101097 0.159981,0.505732 0.163722,0.847785 z"/>
 <path style="fill:#f4f4f7" d="M 28.990504,34.113914 C 28.219379,36.904697 24.964901,39 21.067129,39 c -4.236094,0 -7.712375,-2.474832 -8.066841,-5.627603 0.01225,-0.125129 0.0621,-0.311137 0.219001,-0.307657 1.072737,0.02379 4.515642,-0.140038 7.764267,-0.02079 3.225351,0.118394 6.735439,-0.245212 7.843226,0.222179 0.239615,0.101097 0.159981,0.505732 0.163722,0.847785 z"/>
 <path style="opacity:0.2" d="m 10.773022,9.3749982 c 4.895429,-3.6228904 8.358323,-4.929911 11.925542,-4.1644816 4.753615,1.0199965 9.580105,4.5058021 10.249063,5.6563664 1.102101,1.895542 1.914689,8.269272 2.604826,9.542376 0.703898,1.298489 2.628231,2.70373 3.485426,2.761484 2.006836,0.135212 2.340573,-0.855797 2.962121,-0.625772 -1.843365,3.18414 -2.754409,7.211843 -9.089039,6.33229 C 30.885175,28.556518 30.676135,27.326137 29.484685,25.821648 25.559119,20.878495 22.86046,15.885302 18.884712,16 15.683016,16.092367 13.999315,21.387864 10.571895,20.9 7.187649,20.406312 8.0541321,14.895678 8.2243996,12.549181 8.5499332,10.789617 9.448173,10.356966 10.773022,9.3749982 Z"/>
 <path style="fill:#ffe678" d="m 10.773022,8.3749986 c 4.895429,-3.6228904 8.358323,-4.929911 11.925542,-4.1644816 4.753615,1.0199965 9.580105,4.5058021 10.249063,5.6563661 1.102101,1.8955419 1.914689,8.2692719 2.604826,9.5423759 0.703898,1.298489 2.628231,2.70373 3.485426,2.761484 2.006836,0.135212 2.340573,-0.855797 2.962121,-0.625772 -1.843365,3.18414 -2.754409,7.211843 -9.089039,6.33229 C 30.885175,27.556518 30.676135,26.326137 29.484685,24.821648 25.559119,19.878495 22.86046,14.885302 18.884712,15 15.683016,15.092367 13.999315,20.387864 10.571895,19.9 7.187649,19.406312 8.0541321,13.895678 8.2243996,11.549181 8.5499332,9.789617 9.448173,9.3569668 10.773022,8.3749986 Z"/>
 <circle style="fill:#f4f4f7" cx="14.25" cy="28.75" r=".75"/>
 <circle style="fill:#f4f4f7" cx="27.75" cy="28.75" r=".75"/>
 <path style="opacity:0.2;fill:#f4f4f7" d="M 21.363281,4.0214844 C 18.243774,3.8084101 15.056938,5.2049709 10.773438,8.375 9.4485885,9.3569682 8.550143,9.7892641 8.2246094,11.548828 8.1543114,12.517621 7.97903,14.022395 8.0195312,15.494141 8.0552924,14.370128 8.1704219,13.295599 8.2246094,12.548828 8.550143,10.789264 9.4485885,10.356968 10.773438,9.375 15.668867,5.7521096 19.132,4.4455081 22.699219,5.2109375 c 4.753615,1.0199965 9.579089,4.5056857 10.248047,5.6562505 1.102101,1.895542 1.915331,8.269864 2.605468,9.542968 0.703898,1.298489 2.62718,2.702012 3.484375,2.759766 1.374773,0.09263 1.949921,-0.329249 2.384766,-0.539063 0.189532,-0.364753 0.374398,-0.734028 0.578125,-1.085937 -0.621548,-0.230025 -0.956055,0.760212 -2.962891,0.625 -0.857195,-0.05775 -2.780477,-1.461277 -3.484375,-2.759766 C 34.862597,18.137052 34.049367,11.762729 32.947266,9.8671875 32.278308,8.7166235 27.452834,5.230934 22.699219,4.2109375 22.253316,4.1152588 21.808925,4.0519236 21.363281,4.0214844 Z"/>
</svg>

<svg xmlns="http://www.w3.org/2000/svg" width="48" height="48" version="1"><ellipse style="opacity:.2" cx="-40.578" cy="26.528" rx="2.623" ry="3.546" transform="matrix(-.98344 -.18125 -.17051 .98536 0 0)"/><ellipse style="opacity:.2" cx="1.782" cy="34.331" rx="2.623" ry="3.52" transform="matrix(.98368 -.1799 .17178 .98513 0 0)"/><path style="opacity:.2" d="M10.55 16.99c8.86 3.09 12.905-9.657 25.45 9.013-.91 6.96.182 6.216-1.27 11.55-1.672 4.982-7.825 7.85-14.088 7.401-5.071-.363-9.908-1.666-11.615-7.464-.809-2.678-1.088-5.869-1.016-9.204.084-3.869 1.784-7.615 2.539-11.296z"/><ellipse style="fill:#e59c62" cx="-40.408" cy="25.545" rx="2.623" ry="3.546" transform="matrix(-.98344 -.18125 -.17051 .98536 0 0)"/><ellipse style="fill:#e59c62" cx="1.953" cy="33.347" rx="2.623" ry="3.52" transform="matrix(.98368 -.1799 .17178 .98513 0 0)"/><path style="fill:#f4ac6f" d="M10.55 15.99C16.268 12.013 22.654 4.53 36 25.003c-.91 6.96.182 6.216-1.27 11.55-1.672 4.982-7.825 7.85-14.088 7.401-5.071-.363-9.908-1.666-11.615-7.464-.809-2.678-1.088-5.869-1.016-9.204.084-3.869 1.784-7.615 2.539-11.296z"/><g transform="matrix(-1 0 0 1 43 0)"><circle style="fill:#3f3f3f" cx="15" cy="29" r="2"/><path style="fill:#3f3f3f" d="M12.509 26.04c.408.627 1.136 1.283 1.954 1.184l-1.121.641c-.688-.506-.823-1.15-.833-1.826z"/><path style="fill:#3f3f3f" d="M11.548 27.48c.408.629 1.841.388 2.658.289l-.544 1.41c-.687-.507-2.104-1.023-2.114-1.698zM11.676 28.602c.408.628 1.841.387 2.659.288l-.545 1.41c-.687-.507-2.104-1.023-2.114-1.698z"/></g><g transform="translate(-1)"><circle style="fill:#3f3f3f" cx="15" cy="29" r="2"/><path style="fill:#3f3f3f" d="M12.509 26.04c.408.627 1.136 1.283 1.954 1.184l-1.121.641c-.688-.506-.823-1.15-.833-1.826z"/><path style="fill:#3f3f3f" d="M11.548 27.48c.408.629 1.841.388 2.658.289l-.544 1.41c-.687-.507-2.104-1.023-2.114-1.698zM11.676 28.602c.408.628 1.841.387 2.659.288l-.545 1.41c-.687-.507-2.104-1.023-2.114-1.698z"/></g><path style="opacity:.2" d="M28.99 35.114C28.22 37.904 24.966 40 21.068 40c-4.236 0-7.712-2.475-8.067-5.628.013-.125.062-.31.22-.307 1.072.024 4.515-.14 7.764-.021 3.225.118 6.735-.245 7.843.222.24.101.16.506.164.848z"/><path style="fill:#f4f4f7" d="M28.99 34.114C28.22 36.904 24.966 39 21.068 39c-4.236 0-7.712-2.475-8.067-5.628.013-.125.062-.31.22-.307 1.072.024 4.515-.14 7.764-.021 3.225.118 6.735-.245 7.843.222.24.101.16.506.164.848z"/><path style="opacity:.2" d="M10.773 9.375c4.895-3.623 8.358-4.93 11.926-4.164 4.753 1.02 9.58 4.505 10.249 5.656 1.102 1.895 1.914 8.27 2.604 9.542.704 1.299 2.629 2.704 3.486 2.762 2.007.135 2.34-.856 2.962-.626-1.843 3.184-2.754 7.212-9.089 6.332-2.026-.32-2.235-1.55-3.426-3.055-3.926-4.944-6.625-9.937-10.6-9.822-3.202.092-4.886 5.388-8.313 4.9-3.384-.494-2.518-6.004-2.348-8.35.326-1.76 1.224-2.193 2.549-3.175z"/><path style="fill:#ffe678" d="M10.773 8.375c4.895-3.623 8.358-4.93 11.926-4.164 4.753 1.02 9.58 4.505 10.249 5.656 1.102 1.895 1.914 8.27 2.604 9.542.704 1.299 2.629 2.704 3.486 2.762 2.007.135 2.34-.856 2.962-.626-1.843 3.184-2.754 7.212-9.089 6.332-2.026-.32-2.235-1.55-3.426-3.055-3.926-4.944-6.625-9.937-10.6-9.822-3.202.092-4.886 5.388-8.313 4.9-3.384-.494-2.518-6.004-2.348-8.35.326-1.76 1.224-2.193 2.549-3.175z"/><circle style="fill:#f4f4f7" cx="14.25" cy="28.75" r=".75"/><circle style="fill:#f4f4f7" cx="27.75" cy="28.75" r=".75"/><path style="opacity:.2;fill:#f4f4f7" d="M21.363 4.021c-3.12-.213-6.306 1.184-10.59 4.354-1.324.982-2.223 1.414-2.548 3.174-.07.969-.246 2.473-.205 3.945.035-1.124.15-2.198.205-2.945.325-1.76 1.224-2.192 2.548-3.174 4.896-3.623 8.359-4.93 11.926-4.164 4.754 1.02 9.58 4.506 10.248 5.656 1.102 1.896 1.916 8.27 2.606 9.543.704 1.299 2.627 2.702 3.484 2.76 1.375.093 1.95-.33 2.385-.54.19-.364.374-.733.578-1.085-.622-.23-.956.76-2.963.625-.857-.058-2.78-1.461-3.484-2.76-.69-1.273-1.504-7.647-2.606-9.543-.669-1.15-5.494-4.636-10.248-5.656a9.412 9.412 0 0 0-1.336-.19z"/></svg>
